source/img/services/icon-services/icon-product.svg

<svg width="200" height="130" viewBox="0 0 200 130" fill="none" xmlns="http://www.w3.org/2000/svg">
<g clip-path="url(#clip0)">
<g filter="url(#filter0_di)">
<path d="M48.4405 5.89998C48.7058 3.37336 50.8236 1.44731 53.364 1.42233L192.951 0.0496525C195.732 0.0223095 198 2.26877 198 5.04941V103.134C198 106.033 195.543 108.324 192.651 108.122L44.5065 97.7444L42.0623 93.8346L39.6182 89.9248L48.4405 5.89998Z" fill="url(#paint0_linear)"/>
</g>
<path d="M22.9727 129.246L16.1543 119.248L20.065 114.85L27.3381 126.666C27.6368 127.151 27.4702 127.787 26.9721 128.064L24.2844 129.557C23.8326 129.808 23.2639 129.673 22.9727 129.246Z" fill="url(#paint1_linear)"/>
<ellipse cx="40.5954" cy="94.812" rx="4.88834" ry="4.88722" fill="url(#paint2_linear)"/>
<path d="M6.55393 109.297L6.41214 109.155L6.24297 109.263L2.64643 111.551C1.55793 112.243 1.27347 113.708 2.02345 114.757L7.05596 121.801C7.73779 122.755 9.03834 123.026 10.0441 122.423L15.7936 118.974L16.0683 118.809L15.8418 118.583L6.55393 109.297Z" fill="url(#paint3_linear)" stroke="url(#paint4_linear)" stroke-width="0.5"/>
<path d="M15.6642 118.759L9.91473 122.208C9.02068 122.745 7.86464 122.504 7.25857 121.656L3.44336 116.316L9.7982 112.895L15.6642 118.759Z" fill="url(#paint5_linear)"/>
<path d="M15.3797 101.999L15.2411 101.802L15.0389 101.933L7.02146 107.143C5.94407 107.843 5.67079 109.302 6.42168 110.345L9.59507 114.751L12.9426 119.4C13.6154 120.334 14.8849 120.609 15.8845 120.038L24.587 115.067L24.8357 114.925L24.6612 114.697C22.7645 112.228 21.316 110.295 19.8992 108.349C18.4968 106.423 17.1251 104.484 15.3797 101.999Z" fill="url(#paint6_linear)" stroke="url(#paint7_linear)" stroke-width="0.5"/>
<path d="M24.4638 114.849L15.7614 119.821C14.8728 120.329 13.7444 120.084 13.1463 119.253L9.79883 114.605L19.698 108.496C21.1162 110.444 22.5661 112.379 24.4638 114.849Z" fill="url(#paint8_linear)"/>
<path d="M50.9023 110.252L23.4865 115.827C21.7376 113.771 20.3525 111.578 19.1789 109.962C17.3639 107.464 16.0546 104.985 14.6875 101.947L30.9368 78.9251C31.3469 78.344 32.2155 78.3648 32.5974 78.9648L42.0622 93.8346L51.5467 108.735C51.9233 109.327 51.5896 110.113 50.9023 110.252Z" fill="url(#paint9_linear)"/>
<path d="M23.4863 115.827L50.9021 110.252C51.5894 110.112 51.9231 109.327 51.5465 108.735L42.062 93.8345L19.1787 109.962C20.3523 111.578 21.7374 113.771 23.4863 115.827Z" fill="url(#paint10_linear)"/>
<g filter="url(#filter1_f)">
<path d="M30.819 84.0601L29.3525 86.0149M27.886 87.9698C27.886 87.9698 24.3012 93.02 22.5088 95.3007" stroke="#F5F9FF" stroke-linecap="round"/>
</g>
<path d="M52.5411 14.6616L45.495 86.7643C45.2212 89.5664 47.3137 92.0419 50.1222 92.2384L186.296 101.768C189.188 101.971 191.645 99.6795 191.645 96.7806V14.6616M52.5411 14.6616L52.8642 11.3557C53.1145 8.79487 55.2674 6.84204 57.8405 6.84204H186.645C189.407 6.84204 191.645 9.08062 191.645 11.842V14.6616M52.5411 14.6616H191.645" stroke="#F5F9FF"/>
<circle cx="184.312" cy="10.7519" r="1.47744" stroke="#F5F9FF"/>
<circle cx="178.446" cy="10.7519" r="1.47744" stroke="#F5F9FF"/>
<circle cx="172.58" cy="10.7519" r="1.47744" stroke="#F5F9FF"/>
<g filter="url(#filter2_ii)">
<path d="M56.9543 22.2606C57.1028 20.7226 58.3952 19.5488 59.9404 19.5488H133.719C135.443 19.5488 136.813 20.9991 136.714 22.7207L133.644 76.2061C133.55 77.8491 132.15 79.1095 130.506 79.0307L54.984 75.4137C53.2721 75.3318 51.9767 73.8349 52.1414 72.129L56.9543 22.2606Z" fill="url(#paint11_linear)"/>
</g>
<path d="M184.267 20.5264H144.696C143.617 20.5264 142.733 21.3817 142.697 22.4597L142.34 33.1668C142.303 34.2794 143.181 35.2082 144.294 35.2329L184.223 36.12C185.345 36.145 186.267 35.2425 186.267 34.1205V22.5264C186.267 21.4218 185.372 20.5264 184.267 20.5264Z" stroke="#F5F9FF"/>
<path d="M184.312 41.4989L143.278 40.6071C142.18 40.5832 141.269 41.4486 141.235 42.546L140.868 54.675C140.834 55.786 141.713 56.7113 142.824 56.7352L184.225 57.6253C185.346 57.6494 186.268 56.7472 186.268 55.6258V43.4984C186.268 42.4108 185.399 41.5225 184.312 41.4989Z" stroke="#F5F9FF"/>
<path d="M184.311 63.4918L142.73 62.5977C141.656 62.5747 140.755 63.404 140.69 64.4763L139.954 76.6292C139.885 77.7544 140.76 78.7136 141.887 78.7492L184.205 80.0852C185.334 80.1209 186.268 79.2155 186.268 78.0862V65.4913C186.268 64.4035 185.399 63.5151 184.311 63.4918Z" stroke="#F5F9FF"/>
<path d="M50.969 79.3343C51.1897 78.3921 52.0534 77.743 53.0199 77.7931L115.224 81.0179C116.373 81.0775 117.235 82.0923 117.108 83.2361L117.063 83.6465C116.945 84.7012 116.025 85.4807 114.965 85.4226L52.7544 82.0109C51.5121 81.9428 50.6329 80.7691 50.9166 79.5578L50.969 79.3343Z" fill="#71A0DD"/>
<path d="M50.3523 85.8946C50.5259 84.8851 51.4341 84.1699 52.4562 84.2379L91.5286 86.8361C92.7548 86.9176 93.6103 88.0863 93.3174 89.2798C93.0898 90.207 92.2322 90.8391 91.2792 90.7821L52.1676 88.4403C50.9779 88.3691 50.1142 87.2796 50.3161 86.105L50.3523 85.8946Z" fill="#71A0DD"/>
<path d="M35.2188 76.2407L37.1736 59.1354M38.1511 52.782L38.6398 45.9399" stroke="url(#paint12_linear)" stroke-width="2" stroke-linecap="round"/>
<path d="M83.124 105.075L65.526 104.098M60.6376 103.609L53.7939 103.12" stroke="url(#paint13_linear)" stroke-width="2" stroke-linecap="round"/>
</g>
<defs>
<filter id="filter0_di" x="35.6182" y="-3.95068" width="165.382" height="115.085" filterUnits="userSpaceOnUse" color-interpolation-filters="sRGB">
<feFlood flood-opacity="0" result="BackgroundImageFix"/>
<feColorMatrix in="SourceAlpha" type="matrix" values="0 0 0 0 0 0 0 0 0 0 0 0 0 0 0 0 0 0 127 0"/>
<feOffset dx="1" dy="1"/>
<feGaussianBlur stdDeviation="1"/>
<feColorMatrix type="matrix" values="0 0 0 0 0.7125 0 0 0 0 0.115781 0 0 0 0 0.227892 0 0 0 0.2 0"/>
<feBlend mode="normal" in2="BackgroundImageFix" result="effect1_dropShadow"/>
<feBlend mode="normal" in="SourceGraphic" in2="effect1_dropShadow" result="shape"/>
<feColorMatrix in="SourceAlpha" type="matrix" values="0 0 0 0 0 0 0 0 0 0 0 0 0 0 0 0 0 0 127 0" result="hardAlpha"/>
<feOffset dx="-4" dy="-4"/>
<feGaussianBlur stdDeviation="4"/>
<feComposite in2="hardAlpha" operator="arithmetic" k2="-1" k3="1"/>
<feColorMatrix type="matrix" values="0 0 0 0 0 0 0 0 0 0 0 0 0 0 0 0 0 0 0.2 0"/>
<feBlend mode="normal" in2="shape" result="effect2_innerShadow"/>
</filter>
<filter id="filter1_f" x="21.8088" y="83.3601" width="9.71022" height="12.6407" filterUnits="userSpaceOnUse" color-interpolation-filters="sRGB">
<feFlood flood-opacity="0" result="BackgroundImageFix"/>
<feBlend mode="normal" in="SourceGraphic" in2="BackgroundImageFix" result="shape"/>
<feGaussianBlur stdDeviation="0.1" result="effect1_foregroundBlur"/>
</filter>
<filter id="filter2_ii" x="48.127" y="15.5488" width="90.5917" height="65.4854" filterUnits="userSpaceOnUse" color-interpolation-filters="sRGB">
<feFlood flood-opacity="0" result="BackgroundImageFix"/>
<feBlend mode="normal" in="SourceGraphic" in2="BackgroundImageFix" result="shape"/>
<feColorMatrix in="SourceAlpha" type="matrix" values="0 0 0 0 0 0 0 0 0 0 0 0 0 0 0 0 0 0 127 0" result="hardAlpha"/>
<feOffset dx="-4" dy="-4"/>
<feGaussianBlur stdDeviation="4"/>
<feComposite in2="hardAlpha" operator="arithmetic" k2="-1" k3="1"/>
<feColorMatrix type="matrix" values="0 0 0 0 0 0 0 0 0 0 0 0 0 0 0 0 0 0 0.3 0"/>
<feBlend mode="normal" in2="shape" result="effect1_innerShadow"/>
<feColorMatrix in="SourceAlpha" type="matrix" values="0 0 0 0 0 0 0 0 0 0 0 0 0 0 0 0 0 0 127 0" result="hardAlpha"/>
<feOffset dx="2" dy="2"/>
<feGaussianBlur stdDeviation="2"/>
<feComposite in2="hardAlpha" operator="arithmetic" k2="-1" k3="1"/>
<feColorMatrix type="matrix" values="0 0 0 0 1 0 0 0 0 1 0 0 0 0 1 0 0 0 0.1 0"/>
<feBlend mode="normal" in2="effect1_innerShadow" result="effect2_innerShadow"/>
</filter>
<linearGradient id="paint0_linear" x1="193.118" y1="54.2481" x2="44.3822" y2="49.5863" gradientUnits="userSpaceOnUse">
<stop stop-color="#A62E41"/>
<stop offset="1" stop-color="#E13152"/>
</linearGradient>
<linearGradient id="paint1_linear" x1="25.4421" y1="127.068" x2="18.1759" y2="121.419" gradientUnits="userSpaceOnUse">
<stop offset="0.381894" stop-color="#0C4C94"/>
<stop offset="0.705512" stop-color="#0A3A6E"/>
</linearGradient>
<linearGradient id="paint2_linear" x1="40.5954" y1="89.9248" x2="40.5954" y2="99.6992" gradientUnits="userSpaceOnUse">
<stop stop-color="#0A3D76"/>
<stop offset="1" stop-color="#0C53A3"/>
</linearGradient>
<linearGradient id="paint3_linear" x1="1.8962" y1="110.55" x2="13.1872" y2="122.353" gradientUnits="userSpaceOnUse">
<stop stop-color="#0A3D76"/>
<stop offset="1" stop-color="#1072DF"/>
</linearGradient>
<linearGradient id="paint4_linear" x1="4.00821" y1="111.634" x2="11.4731" y2="122.027" gradientUnits="userSpaceOnUse">
<stop stop-color="#337CCE"/>
<stop offset="1" stop-color="#1069CD"/>
</linearGradient>
<linearGradient id="paint5_linear" x1="11.6313" y1="120.988" x2="7.42952" y2="114.798" gradientUnits="userSpaceOnUse">
<stop offset="0.617401" stop-color="#074181"/>
<stop offset="1" stop-color="#07458A" stop-opacity="0"/>
</linearGradient>
<linearGradient id="paint6_linear" x1="6.56349" y1="103.603" x2="21.902" y2="118.962" gradientUnits="userSpaceOnUse">
<stop stop-color="#0A3D76"/>
<stop offset="1" stop-color="#1072DF"/>
</linearGradient>
<linearGradient id="paint7_linear" x1="9.30911" y1="105.075" x2="19.5716" y2="118.762" gradientUnits="userSpaceOnUse">
<stop stop-color="#337CCE"/>
<stop offset="1" stop-color="#1069CD"/>
</linearGradient>
<linearGradient id="paint8_linear" x1="19.0867" y1="117.782" x2="15.1773" y2="111.428" gradientUnits="userSpaceOnUse">
<stop offset="0.617401" stop-color="#074181"/>
<stop offset="1" stop-color="#07458A" stop-opacity="0"/>
</linearGradient>
<linearGradient id="paint9_linear" x1="51.1674" y1="96.7669" x2="15.8009" y2="96.0171" gradientUnits="userSpaceOnUse">
<stop stop-color="#A62E41"/>
<stop offset="1" stop-color="#E13152"/>
</linearGradient>
<linearGradient id="paint10_linear" x1="29.3526" y1="102.143" x2="37.1715" y2="113.385" gradientUnits="userSpaceOnUse">
<stop stop-color="#A41D34" stop-opacity="0"/>
<stop offset="0.427663" stop-color="#830B20"/>
</linearGradient>
<linearGradient id="paint11_linear" x1="94.3674" y1="19.5488" x2="94.3674" y2="79.1729" gradientUnits="userSpaceOnUse">
<stop stop-color="#0A3D76"/>
<stop offset="1" stop-color="#0C53A3"/>
</linearGradient>
<linearGradient id="paint12_linear" x1="38.5343" y1="61.0903" x2="35.3185" y2="61.0825" gradientUnits="userSpaceOnUse">
<stop stop-color="#A62E41"/>
<stop offset="1" stop-color="#E13152"/>
</linearGradient>
<linearGradient id="paint13_linear" x1="68.459" y1="103.181" x2="68.4563" y2="105.018" gradientUnits="userSpaceOnUse">
<stop stop-color="#A62E41"/>
<stop offset="1" stop-color="#E13152"/>
</linearGradient>
<clipPath id="clip0">
<rect width="200" height="130" fill="white"/>
</clipPath>
</defs>
</svg>

<svg width="200" height="130" fill="none" xmlns="http://www.w3.org/2000/svg"><g clip-path="url(#clip0)"><g filter="url(#filter0_di)"><path d="M48.44 5.9a5 5 0 014.924-4.478L192.951.05a5 5 0 015.049 5v98.084a5 5 0 01-5.349 4.988L44.507 97.744l-2.445-3.91-2.444-3.91L48.44 5.9z" fill="url(#paint0_linear)"/></g><path d="M22.973 129.246l-6.819-9.998 3.911-4.398 7.273 11.816a1 1 0 01-.366 1.398l-2.688 1.493a1 1 0 01-1.311-.311z" fill="url(#paint1_linear)"/><ellipse cx="40.595" cy="94.812" rx="4.888" ry="4.887" fill="url(#paint2_linear)"/><path d="M6.554 109.297l-.142-.142-.169.108-3.597 2.288a2.25 2.25 0 00-.623 3.206l5.033 7.044a2.25 2.25 0 002.988.622l5.75-3.449.274-.165-.226-.226-9.288-9.286z" fill="url(#paint3_linear)" stroke="url(#paint4_linear)" stroke-width=".5"/><path d="M15.664 118.759l-5.75 3.449a2 2 0 01-2.655-.552l-3.816-5.34 6.355-3.421 5.866 5.864z" fill="url(#paint5_linear)"/><path d="M15.38 101.999l-.139-.197-.202.131-8.018 5.21a2.25 2.25 0 00-.6 3.202l3.174 4.406 3.348 4.649a2.25 2.25 0 002.941.638l8.703-4.971.249-.142-.175-.228a298.344 298.344 0 01-4.762-6.348 451.281 451.281 0 01-4.52-6.35z" fill="url(#paint6_linear)" stroke="url(#paint7_linear)" stroke-width=".5"/><path d="M24.464 114.849l-8.703 4.972a2 2 0 01-2.615-.568L9.8 114.605l9.899-6.109a297.647 297.647 0 004.766 6.353z" fill="url(#paint8_linear)"/><path d="M50.902 110.252l-27.416 5.575c-1.748-2.056-3.134-4.249-4.307-5.865-1.815-2.498-3.124-4.977-4.491-8.015l16.249-23.022a1 1 0 011.66.04l9.465 14.87 9.485 14.9a1 1 0 01-.645 1.517z" fill="url(#paint9_linear)"/><path d="M23.486 115.827l27.416-5.575a1 1 0 00.645-1.517l-9.485-14.9-22.883 16.127c1.173 1.616 2.558 3.809 4.307 5.865z" fill="url(#paint10_linear)"/><g filter="url(#filter1_f)"><path d="M30.819 84.06l-1.466 1.955m-1.467 1.955s-3.585 5.05-5.377 7.33" stroke="#F5F9FF" stroke-linecap="round"/></g><path d="M52.541 14.662l-7.046 72.102a5 5 0 004.627 5.474l136.174 9.53a5 5 0 005.349-4.987V14.66m-139.104 0l.323-3.305a5 5 0 014.977-4.514h128.804a5 5 0 015 5v2.82m-139.104 0h139.104" stroke="#F5F9FF"/><circle cx="184.312" cy="10.752" r="1.477" stroke="#F5F9FF"/><circle cx="178.446" cy="10.752" r="1.477" stroke="#F5F9FF"/><circle cx="172.58" cy="10.752" r="1.477" stroke="#F5F9FF"/><g filter="url(#filter2_ii)"><path d="M56.954 22.26a3 3 0 012.986-2.711h73.779a3 3 0 012.995 3.172l-3.07 53.485a3 3 0 01-3.138 2.825l-75.522-3.617a3 3 0 01-2.843-3.285l4.813-49.868z" fill="url(#paint11_linear)"/></g><path d="M184.267 20.526h-39.571a2 2 0 00-1.999 1.934l-.357 10.707a2 2 0 001.954 2.066l39.929.887a2 2 0 002.044-2V22.526a2 2 0 00-2-2zm.045 20.973l-41.034-.892a2 2 0 00-2.043 1.939l-.367 12.129a2 2 0 001.956 2.06l41.401.89a2 2 0 002.043-2V43.499a2 2 0 00-1.956-2zm-.001 21.993l-41.581-.894a2 2 0 00-2.04 1.878l-.736 12.153a2 2 0 001.933 2.12l42.318 1.336a2 2 0 002.063-1.999V65.491a2 2 0 00-1.957-2z" stroke="#F5F9FF"/><path d="M50.969 79.334a2 2 0 012.05-1.54l62.205 3.224a2 2 0 011.884 2.218l-.045.41a2 2 0 01-2.098 1.777l-62.21-3.412a2 2 0 01-1.838-2.453l.052-.224zm-.617 6.561a2 2 0 012.104-1.657l39.073 2.598a1.977 1.977 0 01-.25 3.946L52.168 88.44a2 2 0 01-1.852-2.335l.036-.21z" fill="#71A0DD"/><path d="M35.219 76.24l1.955-17.105m.977-6.353l.489-6.842" stroke="url(#paint12_linear)" stroke-width="2" stroke-linecap="round"/><path d="M83.124 105.075l-17.598-.977m-4.888-.489l-6.844-.489" stroke="url(#paint13_linear)" stroke-width="2" stroke-linecap="round"/></g><defs><linearGradient id="paint0_linear" x1="193.118" y1="54.248" x2="44.382" y2="49.586" gradientUnits="userSpaceOnUse"><stop stop-color="#A62E41"/><stop offset="1" stop-color="#E13152"/></linearGradient><linearGradient id="paint1_linear" x1="25.442" y1="127.068" x2="18.176" y2="121.419" gradientUnits="userSpaceOnUse"><stop offset=".382" stop-color="#0C4C94"/><stop offset=".706" stop-color="#0A3A6E"/></linearGradient><linearGradient id="paint2_linear" x1="40.595" y1="89.925" x2="40.595" y2="99.699" gradientUnits="userSpaceOnUse"><stop stop-color="#0A3D76"/><stop offset="1" stop-color="#0C53A3"/></linearGradient><linearGradient id="paint3_linear" x1="1.896" y1="110.55" x2="13.187" y2="122.353" gradientUnits="userSpaceOnUse"><stop stop-color="#0A3D76"/><stop offset="1" stop-color="#1072DF"/></linearGradient><linearGradient id="paint4_linear" x1="4.008" y1="111.634" x2="11.473" y2="122.027" gradientUnits="userSpaceOnUse"><stop stop-color="#337CCE"/><stop offset="1" stop-color="#1069CD"/></linearGradient><linearGradient id="paint5_linear" x1="11.631" y1="120.988" x2="7.43" y2="114.798" gradientUnits="userSpaceOnUse"><stop offset=".617" stop-color="#074181"/><stop offset="1" stop-color="#07458A" stop-opacity="0"/></linearGradient><linearGradient id="paint6_linear" x1="6.563" y1="103.603" x2="21.902" y2="118.962" gradientUnits="userSpaceOnUse"><stop stop-color="#0A3D76"/><stop offset="1" stop-color="#1072DF"/></linearGradient><linearGradient id="paint7_linear" x1="9.309" y1="105.075" x2="19.572" y2="118.762" gradientUnits="userSpaceOnUse"><stop stop-color="#337CCE"/><stop offset="1" stop-color="#1069CD"/></linearGradient><linearGradient id="paint8_linear" x1="19.087" y1="117.782" x2="15.177" y2="111.428" gradientUnits="userSpaceOnUse"><stop offset=".617" stop-color="#074181"/><stop offset="1" stop-color="#07458A" stop-opacity="0"/></linearGradient><linearGradient id="paint9_linear" x1="51.167" y1="96.767" x2="15.801" y2="96.017" gradientUnits="userSpaceOnUse"><stop stop-color="#A62E41"/><stop offset="1" stop-color="#E13152"/></linearGradient><linearGradient id="paint10_linear" x1="29.353" y1="102.143" x2="37.172" y2="113.385" gradientUnits="userSpaceOnUse"><stop stop-color="#A41D34" stop-opacity="0"/><stop offset=".428" stop-color="#830B20"/></linearGradient><linearGradient id="paint11_linear" x1="94.367" y1="19.549" x2="94.367" y2="79.173" gradientUnits="userSpaceOnUse"><stop stop-color="#0A3D76"/><stop offset="1" stop-color="#0C53A3"/></linearGradient><linearGradient id="paint12_linear" x1="38.534" y1="61.09" x2="35.319" y2="61.083" gradientUnits="userSpaceOnUse"><stop stop-color="#A62E41"/><stop offset="1" stop-color="#E13152"/></linearGradient><linearGradient id="paint13_linear" x1="68.459" y1="103.181" x2="68.456" y2="105.018" gradientUnits="userSpaceOnUse"><stop stop-color="#A62E41"/><stop offset="1" stop-color="#E13152"/></linearGradient><filter id="filter0_di" x="35.618" y="-3.951" width="165.382" height="115.085" filterUnits="userSpaceOnUse" color-interpolation-filters="sRGB"><feFlood flood-opacity="0" result="BackgroundImageFix"/><feColorMatrix in="SourceAlpha" values="0 0 0 0 0 0 0 0 0 0 0 0 0 0 0 0 0 0 127 0"/><feOffset dx="1" dy="1"/><feGaussianBlur stdDeviation="1"/><feColorMatrix values="0 0 0 0 0.7125 0 0 0 0 0.115781 0 0 0 0 0.227892 0 0 0 0.2 0"/><feBlend in2="BackgroundImageFix" result="effect1_dropShadow"/><feBlend in="SourceGraphic" in2="effect1_dropShadow" result="shape"/><feColorMatrix in="SourceAlpha" values="0 0 0 0 0 0 0 0 0 0 0 0 0 0 0 0 0 0 127 0" result="hardAlpha"/><feOffset dx="-4" dy="-4"/><feGaussianBlur stdDeviation="4"/><feComposite in2="hardAlpha" operator="arithmetic" k2="-1" k3="1"/><feColorMatrix values="0 0 0 0 0 0 0 0 0 0 0 0 0 0 0 0 0 0 0.2 0"/><feBlend in2="shape" result="effect2_innerShadow"/></filter><filter id="filter1_f" x="21.809" y="83.36" width="9.71" height="12.641" filterUnits="userSpaceOnUse" color-interpolation-filters="sRGB"><feFlood flood-opacity="0" result="BackgroundImageFix"/><feBlend in="SourceGraphic" in2="BackgroundImageFix" result="shape"/><feGaussianBlur stdDeviation=".1" result="effect1_foregroundBlur"/></filter><filter id="filter2_ii" x="48.127" y="15.549" width="90.592" height="65.485" filterUnits="userSpaceOnUse" color-interpolation-filters="sRGB"><feFlood flood-opacity="0" result="BackgroundImageFix"/><feBlend in="SourceGraphic" in2="BackgroundImageFix" result="shape"/><feColorMatrix in="SourceAlpha" values="0 0 0 0 0 0 0 0 0 0 0 0 0 0 0 0 0 0 127 0" result="hardAlpha"/><feOffset dx="-4" dy="-4"/><feGaussianBlur stdDeviation="4"/><feComposite in2="hardAlpha" operator="arithmetic" k2="-1" k3="1"/><feColorMatrix values="0 0 0 0 0 0 0 0 0 0 0 0 0 0 0 0 0 0 0.3 0"/><feBlend in2="shape" result="effect1_innerShadow"/><feColorMatrix in="SourceAlpha" values="0 0 0 0 0 0 0 0 0 0 0 0 0 0 0 0 0 0 127 0" result="hardAlpha"/><feOffset dx="2" dy="2"/><feGaussianBlur stdDeviation="2"/><feComposite in2="hardAlpha" operator="arithmetic" k2="-1" k3="1"/><feColorMatrix values="0 0 0 0 1 0 0 0 0 1 0 0 0 0 1 0 0 0 0.1 0"/><feBlend in2="effect1_innerShadow" result="effect2_innerShadow"/></filter><clipPath id="clip0"><path fill="#fff" d="M0 0h200v130H0z"/></clipPath></defs></svg>
